X: 80
T: Hong toujin
L: 1/4
M: 7/8
K: A
Ee/cA [I:setbarnb 1]| 
AA/GA | 
AF/E2 | 
EA/GA | 
BA/GA | 
AF/E2 | 
Ee/cA | 
AA/GA | 
AF/E2 | 
EA/GA | 
BA/GA | 
AF/E2 |]

@@@ Tune index: 8748
